public/assets/get-involved-decor.svg

<svg width="54" height="111" viewBox="0 0 54 111" fill="none" xmlns="http://www.w3.org/2000/svg">
<path d="M26.3778 74.4882H34.0426C37.864 74.4775 41.5931 73.2936 44.7413 71.0917C47.8896 68.8897 50.3102 65.7724 51.6861 62.1482C52.8742 58.9423 53.0152 55.4326 52.0881 52.1389L40.0857 8.22914C37.3106 -1.9151 23.1622 -1.91865 20.3836 8.22914C15.5568 25.8492 10.356 44.8017 8.33932 52.1354C7.40747 55.4342 7.54721 58.9507 8.73777 62.1624C10.1157 65.7834 12.5367 68.8973 15.6841 71.0965C18.8315 73.2957 22.5586 74.4779 26.3778 74.4882Z" fill="#006D69"/>
<path fill-rule="evenodd" clip-rule="evenodd" d="M40.0785 8.49794C40.0785 8.49795 40.0785 8.49792 40.0785 8.49794L52.3724 52.1068L52.3729 52.1086C53.3073 55.3272 53.1653 58.7567 51.9681 61.8895C50.5773 65.4409 48.1309 68.4955 44.949 70.6533C41.7669 72.8112 37.9978 73.9715 34.1353 73.982H26.2856C22.4254 73.9718 18.6582 72.8133 15.477 70.658C12.2961 68.503 9.84915 65.4517 8.45637 61.9035C7.25672 58.765 7.116 55.3289 8.05513 52.1053L8.05563 52.1036C10.1213 44.8201 15.4485 25.9974 20.3925 8.49802C23.1689 -1.3332 37.3056 -1.32967 40.0785 8.49794ZM40.5733 8.36229C37.661 -1.95948 22.8137 -1.96302 19.8978 8.36223C14.9539 25.8609 9.62702 44.6827 7.56121 51.9665C6.59177 55.2949 6.73729 58.8426 7.97614 62.083L7.97694 62.085C9.40696 65.7288 11.9196 68.8622 15.186 71.0752C18.4525 73.2883 22.3206 74.4778 26.2843 74.4882H34.1367C38.1026 74.4774 41.9728 73.2861 45.2402 71.0703C48.5075 68.8546 51.0197 65.7178 52.4476 62.0707L52.4484 62.0688C53.6847 58.8343 53.8315 55.2934 52.8669 51.9702C52.8668 51.9699 52.8668 51.9696 52.8667 51.9693L40.5733 8.36229Z" fill="#006D69"/>
<path fill-rule="evenodd" clip-rule="evenodd" d="M39.7968 28.7356C39.2429 28.6419 38.7206 29.0321 38.6304 29.6069C38.3048 31.6819 37.2794 33.5695 35.7371 34.9328C34.1953 36.2957 32.2373 37.0462 30.2119 37.0505C28.1866 37.0462 26.2285 36.2957 24.6868 34.9328C23.1445 33.5695 22.1191 31.6819 21.7935 29.6069C21.7032 29.0321 21.181 28.6419 20.6271 28.7356C20.0731 28.8292 19.6971 29.3711 19.7874 29.9459C20.1905 32.5144 21.4597 34.8508 23.3687 36.5384C25.2777 38.2259 27.7023 39.1549 30.2101 39.1596H30.2138C32.7216 39.1549 35.1462 38.2259 37.0552 36.5384C38.9642 34.8508 40.2334 32.5144 40.6365 29.9459C40.7268 29.3711 40.3508 28.8292 39.7968 28.7356Z" fill="#AECC53"/>
<path d="M22.1757 30.182C22.1469 29.8656 22.0249 29.5649 21.8253 29.3179C21.6256 29.0709 21.3571 28.8887 21.0539 28.7943C20.7506 28.6998 20.4262 28.6975 20.1216 28.7875C19.817 28.8775 19.5459 29.0559 19.3427 29.3C19.1395 29.5441 19.0132 29.843 18.9798 30.1589C18.9465 30.4748 19.0075 30.7934 19.1553 31.0746C19.3031 31.3558 19.5309 31.5868 19.81 31.7385C20.089 31.8902 20.4068 31.9556 20.7231 31.9267C20.9332 31.9079 21.1375 31.8478 21.3243 31.7499C21.5111 31.652 21.6767 31.5181 21.8117 31.356C21.9467 31.1939 22.0483 31.0067 22.1107 30.8053C22.1732 30.6038 22.1953 30.392 22.1757 30.182Z" fill="#AECC53"/>
<path d="M38.2479 30.182C38.2767 29.8656 38.3986 29.5649 38.5983 29.3179C38.798 29.0709 39.0665 28.8887 39.3697 28.7943C39.673 28.6998 39.9974 28.6975 40.302 28.7875C40.6066 28.8775 40.8777 29.0559 41.0809 29.3C41.2841 29.5441 41.4104 29.843 41.4438 30.1589C41.4771 30.4748 41.416 30.7934 41.2683 31.0746C41.1205 31.3558 40.8927 31.5868 40.6136 31.7385C40.3345 31.8902 40.0168 31.9556 39.7005 31.9267C39.4904 31.9079 39.2861 31.8478 39.0993 31.7499C38.9125 31.652 38.7468 31.5181 38.6119 31.356C38.4769 31.1939 38.3753 31.0067 38.3128 30.8053C38.2504 30.6038 38.2283 30.392 38.2479 30.182Z" fill="#AECC53"/>
<path fill-rule="evenodd" clip-rule="evenodd" d="M44.5549 42.3781C43.992 42.3139 43.4852 42.7312 43.4227 43.3102C43.0617 46.6591 41.5153 49.7543 39.0783 52.0056C36.642 54.2563 33.486 55.5063 30.2116 55.5175C26.9371 55.507 23.7809 54.2573 21.3445 52.0066C18.9074 49.7551 17.3612 46.6596 17.0009 43.3104C16.9386 42.7314 16.4318 42.314 15.869 42.3781C15.3061 42.4422 14.9004 42.9635 14.9627 43.5425C15.3784 47.4068 17.1624 50.9784 19.9743 53.5761C22.7863 56.1738 26.4294 57.6158 30.2089 57.6271L30.2118 56.5723L30.215 57.6271C33.9941 57.615 37.6367 56.1727 40.4485 53.5752C43.2602 50.9777 45.0444 47.4066 45.4609 43.5427C45.5234 42.9637 45.1177 42.4423 44.5549 42.3781Z" fill="#AECC53"/>
<path d="M17.3624 43.8786C17.3429 43.5618 17.2299 43.258 17.0378 43.0054C16.8457 42.7527 16.583 42.5627 16.2829 42.4593C15.9829 42.3558 15.6589 42.3436 15.3519 42.4242C15.0449 42.5047 14.7687 42.6744 14.5581 42.9118C14.3475 43.1492 14.212 43.4437 14.1686 43.7581C14.1253 44.0725 14.176 44.3927 14.3145 44.6782C14.4531 44.9638 14.6731 45.2019 14.9468 45.3625C15.2206 45.5231 15.5358 45.599 15.8526 45.5806C16.2785 45.5549 16.6767 45.3612 16.9598 45.042C17.2429 44.7229 17.3877 44.3044 17.3624 43.8786Z" fill="#AECC53"/>
<path d="M42.2585 43.8784C42.278 43.5615 42.3911 43.2575 42.5834 43.0048C42.7757 42.7522 43.0386 42.5622 43.3389 42.4589C43.6391 42.3556 43.9633 42.3437 44.2703 42.4245C44.5774 42.5054 44.8536 42.6754 45.064 42.9132C45.2744 43.151 45.4096 43.4458 45.4525 43.7604C45.4955 44.075 45.4441 44.3952 45.3051 44.6807C45.166 44.9661 44.9455 45.2039 44.6713 45.364C44.3971 45.5242 44.0816 45.5995 43.7647 45.5803C43.3395 45.5538 42.9421 45.3597 42.6598 45.0406C42.3774 44.7216 42.2331 44.3036 42.2585 43.8784Z" fill="#AECC53"/>
<path fill-rule="evenodd" clip-rule="evenodd" d="M30.2117 16.6782C29.7683 16.6782 29.4088 17.1292 29.4088 17.6855V109.613C29.4088 110.169 29.7683 110.62 30.2117 110.62C30.6552 110.62 31.0146 110.169 31.0146 109.613V17.6855C31.0146 17.1292 30.6552 16.6782 30.2117 16.6782Z" fill="#AECC53"/>
<path d="M30.2115 19.0867C29.3247 19.0867 28.6057 18.3677 28.6057 17.4808C28.6057 16.594 29.3247 15.875 30.2115 15.875C31.0984 15.875 31.8174 16.594 31.8174 17.4808C31.8174 18.3677 31.0984 19.0867 30.2115 19.0867Z" fill="#AECC53"/>
<g style="mix-blend-mode:multiply">
<path d="M8.93248 86.35C9.35832 86.35 9.76672 86.1797 10.0678 85.8766C10.3689 85.5735 10.5381 85.1624 10.5381 84.7338C10.5381 84.3051 10.3689 83.894 10.0678 83.5909C9.76672 83.2878 9.35832 83.1176 8.93248 83.1176H0.709328C0.573664 82.3621 0.504896 81.596 0.503836 80.8283C0.516752 80.1483 0.599623 79.4716 0.751122 78.8089H8.93248C9.34584 78.7895 9.73588 78.6106 10.0216 78.3093C10.3073 78.008 10.4667 77.6075 10.4667 77.1909C10.4667 76.7744 10.3073 76.3739 10.0216 76.0726C9.73588 75.7713 9.34584 75.5924 8.93248 75.573H1.695C2.17216 74.2232 2.76773 72.7683 3.43645 71.2643H8.93248C9.35832 71.2643 9.76672 71.094 10.0678 70.7909C10.3689 70.4879 10.5381 70.0768 10.5381 69.6481C10.5381 69.2195 10.3689 68.8084 10.0678 68.5053C9.76672 68.2022 9.35832 68.0319 8.93248 68.0319H4.95152C5.6481 66.577 6.40737 65.1221 7.14923 63.7197H8.93248C9.35832 63.7197 9.76672 63.5495 10.0678 63.2464C10.3689 62.9433 10.5381 62.5322 10.5381 62.1036C10.5381 61.6749 10.3689 61.2638 10.0678 60.9607C9.76672 60.6576 9.35832 60.4874 8.93248 60.4874H8.89765C11.3357 56.0875 13.3488 52.8096 13.3488 52.8096C13.3488 52.8096 15.3654 56.0875 17.8 60.4874H17.7651C17.3393 60.4874 16.9309 60.6576 16.6298 60.9607C16.3287 61.2638 16.1595 61.6749 16.1595 62.1036C16.1595 62.5322 16.3287 62.9433 16.6298 63.2464C16.9309 63.5495 17.3393 63.7197 17.7651 63.7197H19.5519C20.2937 65.1221 21.0391 66.577 21.7461 68.0319H17.7651C17.3393 68.0319 16.9309 68.2022 16.6298 68.5053C16.3287 68.8084 16.1595 69.2195 16.1595 69.6481C16.1595 70.0768 16.3287 70.4879 16.6298 70.7909C16.9309 71.094 17.3393 71.2643 17.7651 71.2643H23.2647C23.9334 72.7648 24.5289 74.2232 25.0061 75.573H17.7651C17.3518 75.5924 16.9617 75.7713 16.676 76.0726C16.3903 76.3739 16.2309 76.7744 16.2309 77.1909C16.2309 77.6075 16.3903 78.008 16.676 78.3093C16.9617 78.6106 17.3518 78.7895 17.7651 78.8089H25.95C26.0997 79.4719 26.1826 80.1485 26.1973 80.8283C26.1962 81.596 26.1274 82.3621 25.9918 83.1176H17.7651C17.3393 83.1176 16.9309 83.2878 16.6298 83.5909C16.3287 83.894 16.1595 84.3051 16.1595 84.7338C16.1595 85.1624 16.3287 85.5735 16.6298 85.8766C16.9309 86.1797 17.3393 86.35 17.7651 86.35H24.9678C23.9277 88.5659 22.2836 90.4388 20.2268 91.7505C18.17 93.0621 15.7853 93.7585 13.3506 93.7585C10.9158 93.7585 8.53107 93.0621 6.4743 91.7505C4.41754 90.4388 2.77336 88.5659 1.7333 86.35H8.93248Z" fill="#AECC53"/>
</g>
<path fill-rule="evenodd" clip-rule="evenodd" d="M13.7519 55.2183C13.5301 55.2183 13.3504 55.3883 13.3504 55.598V109.437C13.3504 109.647 13.5301 109.817 13.7519 109.817C13.9736 109.817 14.1533 109.647 14.1533 109.437V55.598C14.1533 55.3883 13.9736 55.2183 13.7519 55.2183Z" fill="#006D69"/>
</svg>

<svg xmlns="http://www.w3.org/2000/svg" width="54" height="111" fill="none" viewBox="0 0 54 111"><path fill="#006d69" d="M26.378 74.488h7.665a18.75 18.75 0 0 0 10.698-3.396 19.24 19.24 0 0 0 6.945-8.944 16.2 16.2 0 0 0 .402-10.01L40.086 8.23c-2.775-10.144-16.924-10.148-19.702 0A59785 59785 0 0 1 8.339 52.135a16.2 16.2 0 0 0 .399 10.027 19.24 19.24 0 0 0 6.946 8.935 18.75 18.75 0 0 0 10.694 3.391"/><path fill="#006d69" fill-rule="evenodd" d="m40.079 8.498 12.293 43.609v.002a15.37 15.37 0 0 1-.404 9.78 18.95 18.95 0 0 1-7.019 8.764 19.37 19.37 0 0 1-10.814 3.329h-7.85a19.37 19.37 0 0 1-10.808-3.324 18.95 18.95 0 0 1-7.02-8.754 15.38 15.38 0 0 1-.402-9.799v-.001c2.066-7.284 7.393-26.107 12.337-43.606 2.777-9.831 16.914-9.828 19.687 0m.494-.136c-2.912-10.321-17.76-10.325-20.675 0A52861 52861 0 0 1 7.56 51.967a15.88 15.88 0 0 0 .415 10.116v.002a19.45 19.45 0 0 0 7.21 8.99 19.9 19.9 0 0 0 11.098 3.413h7.853A19.9 19.9 0 0 0 45.24 71.07a19.45 19.45 0 0 0 7.208-9v-.001a15.87 15.87 0 0 0 .419-10.099z" clip-rule="evenodd"/><path fill="#aecc53" fill-rule="evenodd" d="M39.797 28.736c-.554-.094-1.076.296-1.167.87a8.96 8.96 0 0 1-2.893 5.327 8.37 8.37 0 0 1-5.525 2.117 8.37 8.37 0 0 1-5.525-2.117 8.96 8.96 0 0 1-2.893-5.326c-.09-.575-.613-.965-1.167-.871s-.93.635-.84 1.21c.404 2.568 1.673 4.905 3.582 6.592a10.35 10.35 0 0 0 6.841 2.622h.004a10.35 10.35 0 0 0 6.841-2.622c1.91-1.687 3.178-4.024 3.581-6.592.09-.575-.285-1.117-.84-1.21" clip-rule="evenodd"/><path fill="#aecc53" d="M22.176 30.182a1.607 1.607 0 1 0-3.2.291 1.607 1.607 0 0 0 3.2-.291m16.072 0a1.606 1.606 0 1 1 3.198.29 1.606 1.606 0 0 1-3.198-.29"/><path fill="#aecc53" fill-rule="evenodd" d="M44.555 42.378a1.03 1.03 0 0 0-1.132.932c-.361 3.35-1.908 6.444-4.345 8.696-2.436 2.25-5.592 3.5-8.866 3.511-3.275-.01-6.431-1.26-8.867-3.51C18.907 49.755 17.36 46.66 17 43.31a1.033 1.033 0 0 0-1.132-.932c-.563.064-.969.586-.906 1.164.415 3.865 2.2 7.436 5.011 10.034s6.455 4.04 10.235 4.051l.003-1.055.003 1.055c3.78-.012 7.422-1.454 10.234-4.052 2.811-2.597 4.595-6.168 5.012-10.032.062-.58-.343-1.1-.906-1.165" clip-rule="evenodd"/><path fill="#aecc53" d="M17.362 43.879a1.605 1.605 0 1 0-3.204.197 1.605 1.605 0 0 0 3.204-.197m24.897-.001a1.605 1.605 0 1 1 3.204.198 1.605 1.605 0 0 1-3.205-.198"/><path fill="#aecc53" fill-rule="evenodd" d="M30.212 16.678c-.444 0-.803.451-.803 1.008v91.927c0 .556.36 1.007.803 1.007s.803-.451.803-1.007V17.686c0-.557-.36-1.008-.803-1.008" clip-rule="evenodd"/><path fill="#aecc53" d="M30.212 19.087a1.606 1.606 0 1 1 0-3.212 1.606 1.606 0 0 1 0 3.212"/><path fill="#aecc53" d="M8.932 86.35a1.6 1.6 0 0 0 1.136-.473 1.62 1.62 0 0 0 0-2.286 1.6 1.6 0 0 0-1.136-.473H.71a13 13 0 0 1-.205-2.29q.02-1.022.247-2.02h8.181a1.6 1.6 0 0 0 1.09-.499 1.625 1.625 0 0 0 0-2.236 1.6 1.6 0 0 0-1.09-.5H1.695a60 60 0 0 1 1.741-4.309h5.496a1.6 1.6 0 0 0 1.136-.473 1.62 1.62 0 0 0 0-2.286 1.6 1.6 0 0 0-1.136-.473h-3.98a122 122 0 0 1 2.197-4.312h1.783a1.6 1.6 0 0 0 1.136-.474 1.62 1.62 0 0 0 0-2.285 1.6 1.6 0 0 0-1.136-.474h-.034c2.438-4.4 4.45-7.677 4.45-7.677s2.017 3.277 4.452 7.677h-.035a1.6 1.6 0 0 0-1.135.474 1.62 1.62 0 0 0 0 2.285 1.6 1.6 0 0 0 1.135.474h1.787a142 142 0 0 1 2.194 4.312h-3.98a1.6 1.6 0 0 0-1.136.473 1.62 1.62 0 0 0 0 2.286 1.6 1.6 0 0 0 1.135.473h5.5a59 59 0 0 1 1.741 4.309h-7.24c-.414.02-.804.198-1.09.5a1.625 1.625 0 0 0 0 2.236c.286.302.676.48 1.09.5h8.184c.15.663.233 1.34.247 2.02 0 .767-.07 1.533-.205 2.289h-8.227a1.6 1.6 0 0 0-1.135.473 1.62 1.62 0 0 0 0 2.286 1.6 1.6 0 0 0 1.135.473h7.203a12.9 12.9 0 0 1-4.741 5.4 12.8 12.8 0 0 1-6.876 2.008c-2.435 0-4.82-.696-6.877-2.007a12.9 12.9 0 0 1-4.74-5.401z" style="mix-blend-mode:multiply"/><path fill="#006d69" fill-rule="evenodd" d="M13.752 55.218a.39.39 0 0 0-.402.38v53.839c0 .21.18.38.402.38s.401-.17.401-.38V55.598c0-.21-.18-.38-.401-.38" clip-rule="evenodd"/></svg>
